src/public/price.svg

<svg width="32" height="32" viewBox="0 0 32 32" fill="none" xmlns="http://www.w3.org/2000/svg">
<path d="M7.07926 6.459C7.59927 5.55786 8.57073 5 9.61521 5H22.3852C23.4203 5 24.398 5.54007 24.9228 6.46174L30.7333 16.513C31.2901 17.4867 30.9436 18.6863 30.03 19.2494L30.0169 19.2575L26.2887 21.4001L26.2859 21.4018C25.717 21.7321 25.0583 21.7478 24.5 21.512V26.3406C24.5 27.2331 23.7868 28 22.8452 28H9.16523C8.27402 28 7.5 27.2834 7.5 26.3406V21.5122C6.94168 21.7478 6.28294 21.732 5.71412 21.4016L5.7117 21.4001L2.00592 19.2646L2.00171 19.2622C1.05585 18.7109 0.707294 17.4847 1.2703 16.5176L1.27166 16.5153L7.07926 6.459ZM19.0918 7L16 13.57L12.9082 7H10.9741L15.033 15.625L14.7977 16.125H16.7318L21.0259 7H19.0918ZM17.8369 16.125H22.5V14.8952L23.3662 16.3865C23.3987 16.4293 23.426 16.4763 23.4474 16.5264L25.2688 19.6623L25.2703 19.6645L25.2726 19.6668L25.2749 19.6682L25.2781 19.6697L25.2807 19.6706L25.2835 19.6711L25.2869 19.6691L28.9852 17.5437C28.9937 17.5371 28.998 17.5295 28.9999 17.5224C29.0009 17.5184 29.0007 17.5147 29.0007 17.5147C29.0007 17.5147 29.0004 17.5118 28.9976 17.5067L23.1854 7.45249C23.0295 7.17774 22.7287 7 22.3852 7H22.1311L17.8369 16.125ZM13.7953 16.125C13.796 15.9817 13.8275 15.838 13.8905 15.7042L13.9278 15.625L9.86894 7H9.61521C9.27986 7 8.9715 7.1813 8.81145 7.45876L3.00022 17.5213L3.00059 17.5229C3.00142 17.5259 3.00281 17.5286 3.00412 17.5303C3.00412 17.5303 3.00592 17.5325 3.00814 17.5338L6.71695 19.6711L6.71976 19.6706C6.72313 19.6697 6.72596 19.6682 6.7278 19.6668L6.73016 19.6644L6.73165 19.6623L9.5 14.8632V16.125H13.7953ZM9.5 26H22.5V17.875H18.0259L19.7917 21.6274C19.9975 22.0647 19.8098 22.586 19.3726 22.7917C18.9353 22.9975 18.4141 22.8098 18.2083 22.3726L16.0918 17.875H15.9082L13.7917 22.3726C13.586 22.8098 13.0647 22.9975 12.6274 22.7917C12.1902 22.586 12.0025 22.0647 12.2083 21.6274L13.9741 17.875H9.5V26Z" fill="#212121"/>
</svg>

<?xml version="1.0" encoding="utf-8"?>
<!-- Generator: Adobe Illustrator 27.1.1, SVG Export Plug-In . SVG Version: 6.00 Build 0)  -->
<svg version="1.1" id="Calque_1" xmlns="http://www.w3.org/2000/svg" xmlns:xlink="http://www.w3.org/1999/xlink" x="0px" y="0px"
	 viewBox="0 0 32 32" style="enable-background:new 0 0 32 32;" xml:space="preserve">
<style type="text/css">
	.st0{fill:#F2E9E4;}
</style>
<path class="st0" d="M7.1,6.5C7.6,5.6,8.6,5,9.6,5h12.8c1,0,2,0.5,2.5,1.5l5.8,10.1c0.6,1,0.2,2.2-0.7,2.7l0,0l-3.7,2.1l0,0
	c-0.6,0.3-1.2,0.3-1.8,0.1v4.8c0,0.9-0.7,1.7-1.7,1.7H9.2c-0.9,0-1.7-0.7-1.7-1.7v-4.8c-0.6,0.2-1.2,0.2-1.8-0.1l0,0L2,19.3l0,0
	c-0.9-0.6-1.3-1.8-0.7-2.7l0,0L7.1,6.5z M19.1,7L16,13.6L12.9,7H11l4.1,8.6l-0.2,0.5h1.9L21,7H19.1z M17.8,16.1h4.7v-1.2l0.9,1.5
	c0,0,0.1,0.1,0.1,0.1l1.8,3.1l0,0l0,0l0,0l0,0l0,0l0,0l0,0l3.7-2.1c0,0,0,0,0,0c0,0,0,0,0,0s0,0,0,0L23.2,7.5C23,7.2,22.7,7,22.4,7
	h-0.3L17.8,16.1z M13.8,16.1c0-0.1,0-0.3,0.1-0.4l0-0.1L9.9,7H9.6C9.3,7,9,7.2,8.8,7.5L3,17.5l0,0c0,0,0,0,0,0c0,0,0,0,0,0l3.7,2.1
	l0,0c0,0,0,0,0,0l0,0l0,0l2.8-4.8v1.3H13.8z M9.5,26h13v-8.1H18l1.8,3.8c0.2,0.4,0,1-0.4,1.2c-0.4,0.2-1,0-1.2-0.4l-2.1-4.5h-0.2
	l-2.1,4.5c-0.2,0.4-0.7,0.6-1.2,0.4c-0.4-0.2-0.6-0.7-0.4-1.2l1.8-3.8H9.5V26z"/>
</svg>
